Flat-Remix-Dark/apps/scalable/pencil.svg

<svg xmlns="http://www.w3.org/2000/svg" xmlns:xlink="http://www.w3.org/1999/xlink" width="384pt" height="384pt" version="1.1" viewBox="0 0 384 384"> <defs> <filter id="alpha" width="100%" height="100%" x="0%" y="0%" filterUnits="objectBoundingBox"> <feColorMatrix in="SourceGraphic" type="matrix" values="0 0 0 0 1 0 0 0 0 1 0 0 0 0 1 0 0 0 1 0"/> </filter> <mask id="mask0"> <g filter="url(#alpha)"> <rect width="384" height="384" x="0" y="0" style="fill:rgb(0%,0%,0%);fill-opacity:0.2"/> </g> </mask> <clipPath id="clip1"> <rect width="384" height="384" x="0" y="0"/> </clipPath> <g id="surface5" clip-path="url(#clip1)"> <path style="fill:rgb(100.000%,100.000%,100.000%)" d="M 191.992188 24 C 99.210938 24.007812 24 99.222656 24 192 C 24.027344 192.984375 24.0625 193.96875 24.105469 194.953125 C 25.765625 103.40625 100.429688 30.046875 191.992188 30 L 192.007812 30 C 283.570312 30.074219 358.210938 103.453125 359.847656 195 C 359.90625 194 359.957031 193 360 192 C 360 99.222656 284.789062 24.007812 192.007812 24 Z M 191.992188 24"/> </g> <mask id="mask1"> <g filter="url(#alpha)"> <rect width="384" height="384" x="0" y="0" style="fill:rgb(0%,0%,0%);fill-opacity:0.2"/> </g> </mask> <clipPath id="clip2"> <rect width="384" height="384" x="0" y="0"/> </clipPath> <g id="surface8" clip-path="url(#clip2)"> <path style="fill:rgb(0%,0%,0%)" d="M 359.742188 196.96875 C 357.058594 287.707031 282.777344 359.902344 192 360 C 102 359.933594 28.035156 288.953125 24.269531 199.03125 C 24.15625 200.6875 24.066406 202.34375 24 204 C 24.042969 205.039062 24.09375 206.078125 24.152344 207.117188 C 24.1875 206.421875 24.226562 205.726562 24.269531 205.03125 C 28.035156 294.953125 102 365.933594 192 366 C 282.777344 365.902344 357.058594 293.707031 359.742188 202.96875 C 359.808594 204.328125 359.859375 205.6875 359.894531 207.046875 C 359.9375 206.03125 359.972656 205.015625 360 204 C 359.964844 201.65625 359.878906 199.308594 359.742188 196.96875 Z M 359.742188 196.96875"/> </g> </defs> <g> <path style="fill:rgb(80.000%,80.000%,80.000%)" d="M 360 192 C 360 284.785156 284.785156 360 192 360 C 99.214844 360 24 284.785156 24 192 C 24 99.214844 99.214844 24 192 24 C 284.785156 24 360 99.214844 360 192 Z M 360 192"/> <path style="fill-rule:evenodd;fill:rgb(29.803%,29.803%,29.803%)" d="M 228 132 L 144 175.199219 L 144 352.921875 C 159.574219 357.589844 175.742188 359.976562 192 360 C 237.183594 359.941406 280.4375 341.683594 312 309.347656 L 312 175.199219 Z M 228 132"/> <path style="fill-rule:evenodd;fill:rgb(100.000%,78.039%,18.823%)" d="M 228 144 L 156 183.613281 L 156 355.96875 C 167.820312 358.605469 179.890625 359.957031 192 360 C 231.53125 359.9375 269.773438 345.9375 300 320.460938 L 300 183.613281 Z M 228 144"/> <path style="fill:rgb(29.803%,29.803%,29.803%)" d="M 252 180 C 252 184.289062 247.425781 188.25 240 190.390625 C 232.574219 192.535156 223.425781 192.535156 216 190.390625 C 208.574219 188.25 204 184.289062 204 180"/> <use mask="url(#mask0)" xlink:href="#surface5"/> <use mask="url(#mask1)" xlink:href="#surface8"/> </g> </svg>

<svg width="512" height="512" version="1.1" viewBox="0 0 384 384" xmlns="http://www.w3.org/2000/svg"><defs><clipPath><rect width="384" height="384"/></clipPath><clipPath><rect width="384" height="384"/></clipPath></defs><path d="m360 192c0 92.785-75.215 168-168 168s-168-75.215-168-168 75.215-168 168-168 168 75.215 168 168z" fill="#fff"/><path d="m228 132l-84 43.199v177.72c15.574 4.668 31.742 7.0547 48 7.0781 45.184-0.058594 88.438-18.316 120-50.652v-134.15z" fill="#4b4b4b" fill-rule="evenodd"/><path d="m228 144l-72 39.613v172.36c11.82 2.6367 23.891 3.9883 36 4.0312 39.531-0.0625 77.773-14.062 108-39.539v-136.85z" fill="#ffc62f" fill-rule="evenodd"/><path d="m252 180c0 4.2891-4.5742 8.25-12 10.391-7.4258 2.1445-16.574 2.1445-24 0-7.4258-2.1406-12-6.1016-12-10.391" fill="#4b4b4b"/><path transform="scale(.75)" d="m32.062 251c-0.036438 1.6631-0.0625 3.3282-0.0625 5 0 123.71 100.29 224 224 224 123.71 0 224-100.29 224-224 0-1.6718-0.02606-3.3369-0.0625-5-2.66 121.4-101.9 219-223.94 219-122.04 0-221.28-97.597-223.94-219z" opacity=".3" stroke-width="1.3333"/><path transform="scale(.75)" d="m256 32c-123.71 0-224 100.29-224 224 0 1.6718 0.026062 3.3369 0.0625 5 2.66-121.4 101.9-219 223.94-219 122.04 0 221.28 97.597 223.94 219 0.03644-1.6631 0.0625-3.3282 0.0625-5 0-123.71-100.29-224-224-224z" opacity=".1" stroke-width="1.3333"/></svg>
